X: 726
T: Ey Serv-i Gülzâr-ı Vefâ
C: III. Selim (İlhâmî)
O: Turkey
F: http://compmusic.upf.edu/node/140
N: sevkefza--sarki--aksak--ey_serv-i--iii_selim
N: makam= sevkefza
N: form= sarki
N: usul= aksak = 9/8
M: 9/8
L: 1/16
K: C _B _7/8d  
Q: 1/4=144
%%MIDI tuningsystem comma53
ef2f f2f2 efge f6 | ef g_7/8agf feed dcc4z2  | 
w:  ARANAĞME  |   | 
B4 =d4 _7/8A2GA cBAG F2 | G_7/8A GFGA {=B}AGGF FEF4z2  | 
w:   |   | 
ef2f f2f2 efge f6 | ef g_7/8agf feed dcc4z2  | 
w:  ARANAĞME  |   | 
B4 =d4 _7/8A2GA cBAG F2 | G_7/8A GFGA {=B}AGGF FEF3fef  | 
w:   |   | 
g4 e2f2 g4 g_7/8aga gf | g_7/8a gf_1/4b2 aggf fea4ag  | 
w:  *  Ey  serv_ i  gül  |  zâr_ *  *  *  ı  *  *  ve *  *  *  fâ   | 
_7/8a2z2 g2a2 a2g2 c'bag f2 | ef g_7/8a_1/4b2 aggf fea4ag  | 
w:  *  ni çin_ et *  tin   |  bi *  *  *  *  *  *  *  *  *  *  ze  ce  | 
g2f4f2 gfef g6 | g4e2 f2g4g_7/8a gagf  | \
w:  fâ  *  a man  *  a *  man    |  *  Ey  serv_ i  gül  | 
g_7/8agf _1/4b2ag gffe a4 ag | 
w:  zâr_ *  *  *  ı  *  *  ve *  *  *  fâ   | 
_7/8a2 z2g2 a2a2 g2c'b agf2  | e2f4fe _e2=d2 _7/8a4 ag | \
w:  *  ni çin_ et *  tin   |  bi *  *  *  *  *  ze  ce  | 
g2 f4 feed cde6  | 
w:  fâ  *  a *  man  *  a *  man    | 
e2z2 f2_7/8a2 g2f2 e2d2 c2 | c2 d2de dccB BAB4Ac  | 
w:  *  U nu tul *  du   |  ha yâl  *  *  *  *  ol *  *  *  du   | 
B2z2 =d2cB BAAG _7/8AGFE F2 | G_7/8A GAG2 A2AG F2G2 A_1/4BAG  | 
w:  *  et ti *  ği *  *  *  miz   |  zevk_ *  *  *  *  *  *  *  *  u  *  *  sa  | 
F6EF GFEF G6 | G2 z2E3FG4G_7/8A GAGF  | \
w:  fâ  a *  man  *  a *  man    |  *  Gel  gü ze lim   | 
G3F _1/4B2_7/8AG GFFE FG=A_B Ac | 
w:  zevk_ *  e *  *  de *  *  *  lim   | 
B2 z2=d2 cBBA AG_7/8AG FEF2  | G_7/8AGA G2A2 AGF2 GA_1/4B2 AG | 
w:  *  et me  *  ba *  *  *  na   |  cevr_ *  *  *  *  *  *  *  *  ü  *  *  ce  | 
F6 F2EF GEF6  | |


